resources/svg/slack.svg

<svg xmlns="http://www.w3.org/2000/svg" viewBox="0 0 15 15" fill="currentColor"><path d="M10.3846 6.92308H8.07692V1.15385C8.07692 0.516595 8.59352 0 9.23077 0C9.86802 0 10.3846 0.516595 10.3846 1.15385V6.92308Z" fill="black"/><path d="M12.6923 6.92308H11.5385V5.76923C11.5385 5.13198 12.0551 4.61539 12.6923 4.61539C13.3296 4.61539 13.8462 5.13198 13.8462 5.76923C13.8462 6.40648 13.3296 6.92308 12.6923 6.92308Z" fill="black"/><path d="M13.8462 8.07692H8.07692V10.3846H13.8462C14.4834 10.3846 15 9.86802 15 9.23077C15 8.59352 14.4834 8.07692 13.8462 8.07692Z" fill="black"/><path d="M8.07692 12.6923V11.5385H9.23077C9.86802 11.5385 10.3846 12.0551 10.3846 12.6923C10.3846 13.3296 9.86802 13.8462 9.23077 13.8462C8.59352 13.8462 8.07692 13.3296 8.07692 12.6923Z" fill="black"/><path d="M1.15385 4.61539H6.92308V6.92308H1.15385C0.516595 6.92308 0 6.40648 0 5.76923C0 5.13198 0.516595 4.61539 1.15385 4.61539Z" fill="black"/><path d="M6.92308 2.30769V3.46154H5.76923C5.13198 3.46154 4.61539 2.94494 4.61539 2.30769C4.61539 1.67044 5.13198 1.15385 5.76923 1.15385C6.40648 1.15385 6.92308 1.67044 6.92308 2.30769Z" fill="black"/><path d="M1.15385 9.23077C1.15385 8.59352 1.67044 8.07692 2.30769 8.07692H3.46154V9.23077C3.46154 9.86802 2.94494 10.3846 2.30769 10.3846C1.67044 10.3846 1.15385 9.86802 1.15385 9.23077Z" fill="black"/><path d="M4.61539 13.8462V8.07692H6.92308V13.8462C6.92308 14.4834 6.40648 15 5.76923 15C5.13198 15 4.61539 14.4834 4.61539 13.8462Z" fill="black"/></svg>

<svg xmlns="http://www.w3.org/2000/svg" viewBox="0 0 15 15" fill="currentColor"><path d="M10.385 6.923H8.077v-5.77a1.154 1.154 0 012.308 0v5.77zm2.307 0H11.54V5.77a1.154 1.154 0 111.153 1.154zm1.154 1.154h-5.77v2.308h5.77a1.154 1.154 0 000-2.308zm-5.769 4.615V11.54H9.23a1.154 1.154 0 11-1.154 1.153zM1.154 4.615h5.77v2.308h-5.77a1.154 1.154 0 010-2.308zm5.769-2.307v1.154H5.77a1.154 1.154 0 111.154-1.154zM1.154 9.23c0-.636.516-1.153 1.154-1.153h1.154V9.23a1.154 1.154 0 01-2.308 0zm3.461 4.616v-5.77h2.308v5.77a1.154 1.154 0 01-2.308 0z" fill="currentColor"/></svg>
